X: 1
T: Reel du Grandp\`ere
O: Qu\'ebec
R: reel
Z: 2015 John Chambers <jc:trillian.mit.edu>
S: printed copy of unknown origin, via Paul Lizotte
M: C|
L: 1/8
K: G
(3DEF |\
"G"G2FG (3EGE DF | GABc d3d | "C"ef (3gfe "G"dBGB | "Am"ABAG "D7"FDEF |
"G"G2FG (3EGE DF | GABc d3d | "C"ef (3gfe "G"dBGB | "D7"ABAF "G"G2 :|[K:D]
|: AG |\
"D"FA- AA ABAG | FAde f3f | "G"gfeg "D"fedf | "Em"edcB "A7"ABAG |
"D"FA- AA ABAG | FAde f3f | "G"gfeg "D"fedf | "A7"efec "D"d2 :|

%%sep 1 1 500

